X: 18
T:Martin Wynne's #2
R:reel
Z:Added by Alf Warnock
M:4/4
L:1/8
K:D
BA|:FBAF E2FE|DB,B,2 DB,A,2|B,EE2 FEDE|FABc dcBA|
FBAF E2FE|DB,B,2 DB,A,2|B,EE2 FEDE|FBBA B2BA:|
|:FBAF A2FA|Beeg edde|fbaf egfe|dBAF BAFE|
FBAF A2FA|Beeg fdde|fbaf egfe|[1 dBAF B2BA:|[2 dBAF B2z2

